packages/gestalt-icons-android/vr-theme/ic_vr_file-box_gestalt.svg

<svg width="24" height="24" viewBox="0 0 24 24" fill="none" xmlns="http://www.w3.org/2000/svg">
<path d="M8 14H16V12H8V14Z" fill="black"/>
<path fill-rule="evenodd" clip-rule="evenodd" d="M5 2C2.79086 2 1 3.79086 1 6V8C1 8.74707 1.40961 9.39848 2.0165 9.74188C2.00561 9.82638 2 9.91253 2 10V18C2 20.2091 3.79086 22 6 22H18C20.2091 22 22 20.2091 22 18V10C22 9.91253 21.9944 9.82638 21.9835 9.74188C22.5904 9.39848 23 8.74708 23 8V6C23 3.79086 21.2091 2 19 2H5ZM3 8V6C3 4.89543 3.89543 4 5 4H19C20.1046 4 21 4.89543 21 6V8H3ZM19 10C19.5523 10 20 10.4477 20 11V18C20 19.1046 19.1046 20 18 20H6C4.89543 20 4 19.1046 4 18V11C4 10.4477 4.44772 10 5 10H19Z" fill="black"/>
</svg>

<svg xmlns="http://www.w3.org/2000/svg" width="24" height="24"><path d="M8 14h8v-2H8zM5 2a4 4 0 0 0-4 4v2a2 2 0 0 0 1.02 1.74L2 10v8a4 4 0 0 0 4 4h12a4 4 0 0 0 4-4v-8l-.02-.26A2 2 0 0 0 23 8V6a4 4 0 0 0-4-4zM3 8V6c0-1.1.9-2 2-2h14a2 2 0 0 1 2 2v2zm16 2a1 1 0 0 1 1 1v7a2 2 0 0 1-2 2H6a2 2 0 0 1-2-2v-7a1 1 0 0 1 1-1z"/></svg>
